X: 22
M:6/8
L:1/8
K:D
uA,|\
|:uA|\
d2e f>ed | (f2g) a>fd | .c.e(f g).e.c | gec .g.e(c |
d).e.d .d.e(d | c).e.c cAG | A>GF E>DE | (FD).D D2:|


